assets/img/obf-logo.svg

<?xml version="1.0" encoding="UTF-8"?>
<svg width="220px" height="220px" viewBox="0 0 220 220" version="1.1" xmlns="http://www.w3.org/2000/svg" xmlns:xlink="http://www.w3.org/1999/xlink">
    <title>OBF Logo</title>
    <g id="Rack-Card" stroke="none" stroke-width="1" fill="none" fill-rule="evenodd" transform="translate(-10.000000, -10.000000)">
        <g id="Logo" transform="translate(10.000000, 10.000000)">
            <g id="Mark">
                <polygon id="Blue" fill="#2087C8" points="0 219.4 219.4 219.4 219.4 0 0 0"></polygon>
                <path d="M163.3169,158.4282 L129.9379,125.6742 C132.7789,122.1452 134.6939,117.8552 135.3749,113.1632 L182.2399,113.1632 C181.3459,130.5872 174.3559,146.3612 163.3169,158.4282 M168.5789,163.9602 C168.5789,165.3922 167.4139,166.5582 165.9799,166.5582 C165.7309,166.5582 165.5069,166.4812 165.2759,166.4172 C164.4319,166.1752 163.7889,165.5412 163.5329,164.7042 C163.4629,164.4652 163.3829,164.2252 163.3829,163.9602 C163.3829,162.5252 164.5439,161.3612 165.9799,161.3612 C166.1249,161.3612 166.2509,161.4202 166.3919,161.4462 C167.4679,161.6232 168.2879,162.4322 168.4849,163.5022 C168.5149,163.6562 168.5789,163.7982 168.5789,163.9602 M113.7419,181.9392 L113.7419,135.0422 C118.7689,134.2532 123.3119,132.0352 126.9449,128.7972 L160.3329,161.5652 C148.1429,173.3992 131.8279,180.9422 113.7419,181.9392 M59.6869,162.1262 L92.9679,129.2652 C96.7969,132.4942 101.5669,134.6382 106.8149,135.2182 L106.8149,181.9972 C88.5699,181.2802 72.0709,173.8792 59.6869,162.1262 M54.5739,167.9992 C54.3289,167.9992 54.1049,167.9232 53.8779,167.8602 C52.7919,167.5502 51.9789,166.5912 51.9789,165.4032 C51.9789,163.9672 53.1419,162.8052 54.5739,162.8052 C55.7749,162.8052 56.7409,163.6342 57.0389,164.7402 C57.0979,164.9572 57.1729,165.1692 57.1729,165.4032 C57.1729,166.8372 56.0089,167.9992 54.5739,167.9992 M37.1609,113.1632 L84.0249,113.1632 C84.7429,118.0962 86.8209,122.5792 89.9049,126.2042 L56.6409,159.0442 C45.2779,146.9002 38.0689,130.8832 37.1609,113.1632 M34.0819,109.4132 C34.0819,110.8452 32.9189,112.0092 31.4869,112.0092 C30.0519,112.0092 28.8869,110.8452 28.8869,109.4132 C28.8869,107.9772 30.0519,106.8152 31.4869,106.8152 C32.9189,106.8152 34.0819,107.9772 34.0819,109.4132 M56.6269,59.7942 L89.9819,92.5272 C86.7409,96.3122 84.5709,101.0332 83.9359,106.2372 L37.1309,106.2372 C37.9089,88.2962 45.1469,72.0682 56.6269,59.7942 M54.5739,51.4002 C56.0089,51.4002 57.1729,52.5632 57.1729,53.9972 C57.1729,54.0762 57.1349,54.1442 57.1279,54.2222 C57.0089,55.5462 55.9309,56.5972 54.5739,56.5972 C53.1419,56.5972 51.9789,55.4332 51.9789,53.9972 C51.9789,52.6592 53.0089,51.5932 54.3069,51.4532 C54.3989,51.4452 54.4799,51.4002 54.5739,51.4002 M106.8149,36.8262 L106.8149,83.6052 C101.6099,84.1812 96.8689,86.2902 93.0569,89.4792 L59.6689,56.7142 C72.0529,44.9502 88.5579,37.5462 106.8149,36.8262 M160.0199,56.9752 L126.7359,89.8352 C123.1389,86.7012 118.6709,84.5532 113.7419,83.7812 L113.7419,36.8852 C131.6749,37.8742 147.8639,45.3082 160.0199,56.9752 M165.5849,51.4802 C165.7189,51.4572 165.8379,51.4002 165.9799,51.4002 C167.4139,51.4002 168.5789,52.5632 168.5789,53.9972 C168.5789,54.2682 168.4999,54.5152 168.4229,54.7622 C168.1649,55.5802 167.5379,56.1982 166.7189,56.4472 C166.4809,56.5192 166.2399,56.5972 165.9799,56.5972 C164.5439,56.5972 163.3829,55.4332 163.3829,53.9972 C163.3829,53.8442 163.4479,53.7132 163.4689,53.5672 C163.6599,52.4812 164.4909,51.6542 165.5849,51.4802 M110.2769,33.2182 C108.8439,33.2182 107.6809,32.0532 107.6809,30.6202 C107.6809,29.1842 108.8439,28.0212 110.2769,28.0212 C111.7109,28.0212 112.8759,29.1842 112.8759,30.6202 C112.8759,32.0532 111.7109,33.2182 110.2769,33.2182 M110.2769,184.7402 C111.7109,184.7402 112.8759,185.9042 112.8759,187.3362 C112.8759,188.7702 111.7109,189.9352 110.2769,189.9352 C108.8439,189.9352 107.6809,188.7702 107.6809,187.3362 C107.6809,185.9042 108.8439,184.7402 110.2769,184.7402 M120.0889,109.4132 C120.0889,110.7392 119.8169,111.9962 119.3639,113.1632 C119.1679,113.6662 118.9219,114.1362 118.6529,114.5992 C117.9169,115.8672 116.9429,116.9662 115.7619,117.8222 C115.1289,118.2762 114.4659,118.6812 113.7419,118.9862 C112.4999,119.5122 111.1359,119.8032 109.6999,119.8032 C108.6929,119.8032 107.7369,119.6142 106.8149,119.3462 C105.8789,119.0742 104.9919,118.6972 104.1859,118.1872 C102.9519,117.4072 101.8779,116.3962 101.0669,115.1832 C100.6469,114.5572 100.3149,113.8742 100.0359,113.1632 C99.5819,111.9962 99.3119,110.7392 99.3119,109.4132 C99.3119,108.2962 99.5349,107.2432 99.8579,106.2372 C100.1739,105.2582 100.5939,104.3322 101.1679,103.5032 C101.9999,102.3022 103.0889,101.3122 104.3379,100.5542 C105.1049,100.0882 105.9379,99.7332 106.8149,99.4782 C107.7369,99.2112 108.6929,99.0202 109.6999,99.0202 C111.1359,99.0202 112.4999,99.3112 113.7419,99.8372 C114.3929,100.1122 115.0059,100.4562 115.5779,100.8532 C116.7839,101.6812 117.7759,102.7682 118.5419,104.0172 C118.9629,104.7072 119.2899,105.4512 119.5429,106.2372 C119.8659,107.2432 120.0889,108.2962 120.0889,109.4132 M182.2699,106.2372 L135.4639,106.2372 C134.8499,101.2182 132.8279,96.6382 129.7719,92.9252 L163.0339,60.0812 C174.3609,72.3222 181.4999,88.4352 182.2699,106.2372 M191.0879,109.4132 C191.0879,110.8452 189.9249,112.0092 188.4899,112.0092 C187.0579,112.0092 185.8939,110.8452 185.8939,109.4132 C185.8939,107.9772 187.0579,106.8152 188.4899,106.8152 C189.9249,106.8152 191.0879,107.9772 191.0879,109.4132 M205.2329,106.2372 L193.3159,106.2372 C192.5389,85.4242 184.1699,66.5622 170.8869,52.3292 L179.2009,44.1212 C180.5579,42.7802 180.9869,40.9972 180.1459,40.1492 C179.3019,39.2982 177.5219,39.6982 176.1569,41.0422 L167.8489,49.2422 C153.6949,35.5612 134.7389,26.8142 113.7419,25.8172 L113.7419,14.1692 C113.7419,12.2562 112.1919,10.7062 110.2769,10.7062 C108.3649,10.7062 106.8149,12.2562 106.8149,14.1692 L106.8149,25.7862 C85.4859,26.5112 66.1929,35.2092 51.8059,49.0002 L43.6089,40.9552 C42.2439,39.6162 40.4599,39.2202 39.6219,40.0752 C38.7869,40.9272 39.2139,42.7042 40.5779,44.0462 L48.7579,52.0722 C35.3349,66.3342 26.8649,85.2982 26.0849,106.2372 L14.1679,106.2372 C12.2559,106.2372 10.7059,107.7862 10.7059,109.7002 C10.7059,111.6132 12.2559,113.1632 14.1679,113.1632 L26.0999,113.1632 C27.0149,133.8982 35.4729,152.6562 48.7959,166.7922 L40.1989,175.2812 C38.8389,176.6232 38.4189,178.4022 39.2539,179.2532 C40.0979,180.1022 41.8799,179.7052 43.2439,178.3612 L51.8479,169.8652 C66.2299,183.6332 85.5099,192.3132 106.8149,193.0362 L106.8149,205.2312 C106.8149,207.1442 108.3649,208.6942 110.2769,208.6942 C112.1919,208.6942 113.7419,207.1442 113.7419,205.2312 L113.7419,193.0062 C134.9019,192.0002 153.9919,183.1322 168.1799,169.2672 L176.9489,177.8672 C178.3079,179.2062 180.0979,179.6032 180.9349,178.7492 C181.7699,177.8952 181.3429,176.1182 179.9779,174.7782 L171.1999,166.1632 C184.1839,152.1052 192.4009,133.5882 193.3009,113.1632 L205.2329,113.1632 C207.1439,113.1632 208.6939,111.6132 208.6939,109.7002 C208.6939,107.7862 207.1439,106.2372 205.2329,106.2372" id="Wheel" fill="#F4F5F5"></path>
            </g>
        </g>
    </g>
</svg>

<svg width="220" height="220" xmlns="http://www.w3.org/2000/svg"><g fill="none" fill-rule="evenodd"><path fill="#2087C8" d="M0 219.4h219.4V0H0z"/><path d="M163.317 158.428l-33.38-32.754a25.83 25.83 0 005.438-12.51h46.865c-.894 17.423-7.884 33.197-18.923 45.264m5.262 5.532a2.601 2.601 0 01-2.6 2.598c-.248 0-.472-.077-.703-.14a2.537 2.537 0 01-1.743-1.714c-.07-.239-.15-.479-.15-.744a2.597 2.597 0 012.597-2.599c.145 0 .27.06.412.085a2.525 2.525 0 012.093 2.056c.03.154.094.296.094.458m-54.837 17.98v-46.898a25.83 25.83 0 0013.203-6.245l33.388 32.768c-12.19 11.834-28.505 19.377-46.591 20.374m-54.055-19.813l33.28-32.86a25.85 25.85 0 0013.848 5.952v46.78c-18.245-.718-34.744-8.119-47.128-19.872M54.574 168c-.245 0-.47-.076-.696-.139-1.086-.31-1.9-1.269-1.9-2.457a2.597 2.597 0 012.596-2.598c1.2 0 2.167.83 2.465 1.935.059.217.134.43.134.663a2.598 2.598 0 01-2.6 2.596m-17.412-54.836h46.864a25.818 25.818 0 005.88 13.041l-33.264 32.84c-11.363-12.144-18.572-28.16-19.48-45.88m-3.08-3.75a2.597 2.597 0 11-5.194-.004 2.597 2.597 0 015.195.003m22.545-49.619l33.355 32.733a25.86 25.86 0 00-6.046 13.71H37.13c.778-17.94 8.016-34.169 19.496-46.443M54.574 51.4a2.598 2.598 0 012.599 2.597c0 .08-.038.147-.045.225-.12 1.324-1.197 2.375-2.554 2.375a2.598 2.598 0 01-2.595-2.6c0-1.338 1.03-2.404 2.328-2.544.092-.008.173-.053.267-.053m52.24-14.574v46.78a25.835 25.835 0 00-13.757 5.873L59.669 56.714c12.384-11.764 28.889-19.168 47.146-19.888m53.205 20.15l-33.284 32.86a25.84 25.84 0 00-12.994-6.055V36.885c17.933.99 34.122 8.423 46.278 20.09m5.565-5.495c.134-.023.253-.08.395-.08a2.6 2.6 0 012.599 2.597c0 .271-.08.518-.156.765a2.546 2.546 0 01-1.704 1.685c-.238.072-.48.15-.74.15a2.597 2.597 0 01-2.596-2.6c0-.153.065-.284.086-.43a2.535 2.535 0 012.116-2.087m-55.308-18.262a2.599 2.599 0 11.005-5.197 2.599 2.599 0 01-.005 5.197m0 151.522a2.6 2.6 0 012.599 2.596 2.6 2.6 0 01-2.6 2.6 2.598 2.598 0 010-5.195m9.813-75.328c0 1.326-.272 2.583-.725 3.75-.196.503-.442.973-.711 1.436a10.419 10.419 0 01-2.891 3.223c-.633.454-1.296.86-2.02 1.164a10.333 10.333 0 01-4.042.817c-1.007 0-1.963-.189-2.885-.457a10.233 10.233 0 01-2.63-1.159 10.44 10.44 0 01-3.118-3.004 10.47 10.47 0 01-1.031-2.02 10.304 10.304 0 01-.724-3.75c0-1.117.223-2.17.546-3.176.316-.979.736-1.905 1.31-2.734a10.398 10.398 0 015.647-4.025c.922-.267 1.878-.458 2.885-.458 1.436 0 2.8.291 4.042.817a10.15 10.15 0 011.836 1.016c1.206.828 2.198 1.915 2.964 3.164.42.69.748 1.434 1 2.22.324 1.006.547 2.06.547 3.176m62.18-3.176h-46.805a25.84 25.84 0 00-5.692-13.312l33.262-32.844c11.327 12.241 18.466 28.354 19.236 46.156m8.818 3.176a2.598 2.598 0 01-5.194 0 2.597 2.597 0 115.194 0m14.145-3.176h-11.917c-.777-20.813-9.146-39.675-22.43-53.908l8.315-8.208c1.357-1.34 1.786-3.124.945-3.972-.844-.85-2.624-.45-3.99.893l-8.307 8.2c-14.154-13.68-33.11-22.428-54.107-23.425V14.17a3.463 3.463 0 10-6.927 0v11.617c-21.33.725-40.622 9.423-55.01 23.214l-8.196-8.045c-1.365-1.339-3.15-1.735-3.987-.88-.835.852-.408 2.63.956 3.971l8.18 8.026c-13.423 14.262-21.893 33.226-22.673 54.165H14.168a3.462 3.462 0 00-3.462 3.463 3.462 3.462 0 003.462 3.463H26.1c.915 20.735 9.373 39.493 22.696 53.63l-8.597 8.488c-1.36 1.342-1.78 3.121-.945 3.972.844.85 2.626.452 3.99-.892l8.604-8.496c14.382 13.768 33.662 22.448 54.967 23.171v12.195a3.463 3.463 0 106.927 0v-12.225c21.16-1.006 40.25-9.874 54.438-23.739l8.769 8.6c1.359 1.34 3.149 1.736 3.986.882.835-.854.408-2.63-.957-3.97l-8.778-8.616c12.984-14.058 21.2-32.575 22.1-53h11.933a3.462 3.462 0 003.46-3.463 3.461 3.461 0 00-3.46-3.463" fill="#F4F5F5"/></g></svg>
